src/svg/medium.svg

<?xml version="1.0" encoding="UTF-8"?>
<svg width="52px" height="52px" viewBox="0 0 52 52" version="1.1" xmlns="http://www.w3.org/2000/svg" xmlns:xlink="http://www.w3.org/1999/xlink">
    <!-- Generator: Sketch 47.1 (45422) - http://www.bohemiancoding.com/sketch -->
    <title>medium</title>
    <desc>Created with Sketch.</desc>
    <defs></defs>
    <g id="Icons" stroke="none" stroke-width="1" fill="none" fill-rule="evenodd">
        <g id="medium">
            <circle id="Oval" fill="#BDC3C7" cx="26" cy="26" r="26"></circle>
            <path d="M14.5575,19.6917345 C14.595,19.3356599 14.45375,18.9844135 14.17875,18.7454211 L11.37875,15.486434 L11.37875,15 L20.075,15 L26.7975,29.2369457 L32.7075,15 L41,15 L41,15.486434 L38.60375,17.7037523 C38.3975,17.8558384 38.295,18.105694 38.3375,18.3531357 L38.3375,34.6480714 C38.295,34.894306 38.3975,35.1429546 38.60375,35.2962477 L40.94125,37.513566 L40.94125,38 L29.17875,38 L29.17875,37.513566 L31.6,35.2419313 C31.8375,35.0125951 31.8375,34.9450013 31.8375,34.5925479 L31.8375,21.4226187 L25.1,37.9444765 L24.19125,37.9444765 L16.3475,21.4226187 L16.3475,32.4959328 C16.2825,32.9618473 16.4425,33.4301758 16.78125,33.7669378 L19.93125,37.4604566 L19.93125,37.9456835 L11,37.9456835 L11,37.4592495 L14.15,33.7657308 C14.4875,33.4301758 14.6375,32.9570192 14.5575,32.4959328 L14.5575,19.6917345 Z" id="Shape" fill="#FFFFFF" fill-rule="nonzero"></path>
        </g>
    </g>
</svg>

<svg width="52" height="52" xmlns="http://www.w3.org/2000/svg"><path d="M26 52c14.36 0 26-11.64 26-26S40.36 0 26 0 0 11.64 0 26s11.64 26 26 26zM14.557 19.692a1.1 1.1 0 0 0-.378-.947l-2.8-3.259V15h8.696l6.723 14.237L32.707 15H41v.486l-2.396 2.218a.666.666 0 0 0-.267.65v16.294a.666.666 0 0 0 .267.648l2.337 2.218V38H29.18v-.486l2.421-2.272c.237-.23.237-.297.237-.65v-13.17L25.1 37.945h-.909l-7.843-16.521v11.073c-.066.466.095.934.433 1.27l3.15 3.694v.486H11v-.487l3.15-3.693c.338-.336.487-.809.407-1.27V19.692z" fill="#D8D8D8" fill-rule="evenodd"/></svg>
